!!!!SEGMENT: pl-wtm--r-131-m--001_moniuszko-stanislaw-msza-swieta-slowa-odynca-kyrie.krn
!!!id: 18xx:1724
!!!COM: Moniuszko, Stanisław
!!!OTL: Msza święta słowa Odyńca – Kyrie
!!!PDT:
!!!SMS-siglum: PL-Wtm
!!!SMS-shelfmark: R 131/M
!!!NIFC-rismID: 1001097550
!!!URL-scan: http://repozytorium.nifc.pl/skany/pl-wtm-nut--r131m
!!!ONB-nifc: UWAGA: części Mszy: 1. Kyrie, 2. Gloria, 3. Graduale, 4. Credo, 5. Sanctus, 6. Benedictus, 7. Agnus.
!!!SMS-variant:
!!!SMS-altvar:
**kern	**kern	**kern	**dynam	**kern	**dynam	**kern	**dynam	**kern	**dynam	**kern	**dynam
*part6	*part6	*part5	*part5	*part4	*part4	*part3	*part3	*part2	*part2	*part1	*part1
*staff7	*staff6	*staff5	*	*staff4	*	*staff3	*	*staff2	*	*staff1	*
*group	*group	*group1	*	*group1	*	*group1	*	*group1	*	*group1	*
*I"Organ.	*	*I"CB.	*	*I"Volc.	*	*I"Vla.	*	*I"V. 2.	*	*I"V. 1.	*
*I'org	*	*I'cb	*	*I'vlc	*	*I'vla	*	*I'vl II	*	*I'vl I	*
*clefF4	*clefG2	*clefF4	*	*clefF4	*	*clefC3	*	*clefG2	*	*clefG2	*
*	*	*Trd0c0	*	*	*	*	*	*	*	*	*
*k[f#]	*k[f#]	*k[f#]	*	*k[f#]	*	*k[f#]	*	*k[f#]	*	*k[f#]	*
*M4/4	*M4/4	*M4/4	*	*M4/4	*	*M4/4	*	*M4/4	*	*M4/4	*
*met(c)	*met(c)	*met(c)	*	*met(c)	*	*met(c)	*	*met(c)	*	*met(c)	*
*>[A,B,B1,B,B2,C]	*>[A,B,B1,B,B2,C]	*>[A,B,B1,B,B2,C]	*	*>[A,B,B1,B,B2,C]	*	*>[A,B,B1,B,B2,C]	*	*>[A,B,B1,B,B2,C]	*	*>[A,B,B1,B,B2,C]	*
=1	=1	=1	=1	=1	=1	=1	=1	=1	=1	=1	=1
*>A	*>A	*>A	*	*>A	*	*>A	*	*>A	*	*>A	*
!	!LO:TX:t=P:problem:w źródle znak przykluczowy f#, a nie ff#	!	!	!	!	!LO:TX:t=P:problem:w źródle znak przykluczowy F#, a nie f#	!	!LO:TX:t=P:problem:w źródle znak przykluczowy f#, a nie ff#	!	!LO:TX:t=P:problem:w źródle znak przykluczowy f#, a nie ff#	!
!	!	!	!	!	!	!	!	!	!	!LO:TX:a:i:t=Kyrie	!
!	!	!	!	!	!	!	!	!	!	!LO:TX:a:i:t=(&colon;Msza Święta - słowa Odyńca.&colon;) \nna trzy głosy.	!
!	!	!	!	!	!	!	!	!	!	!	!LO:DY:b:rj
1ryy	1ryy	1r	.	1r	.	1r	.	1r	.	2e/	p
.	.	.	.	.	.	.	.	.	.	4B/	.
.	.	.	.	.	.	.	.	.	.	4r	.
=2	=2	=2	=2	=2	=2	=2	=2	=2	=2	=2	=2
*	*	*	*	*	*	*2\right	*	*	*	*	*
!	!	!	!	!	!	!	!LO:DY:a:rj	!	!LO:DY:a:rj	!	!LO:DY:a:rj
1ryy	1ryy	1r	.	1r	.	2e\	p	2e/	p	2b 2g/	p
.	.	.	.	.	.	4B/	.	4e/	.	4g/	.
.	.	.	.	.	.	4r	.	4r	.	4r	.
=3	=3	=3	=3	=3	=3	=3	=3	=3	=3	=3	=3
1ryy	1ryy	1r	.	1r	.	1e	.	4.g/	.	4.b\	.
.	.	.	.	.	.	.	.	8a/	.	8cc\	.
.	.	.	.	.	.	.	.	4g/	.	4b\	.
!	!	!	!	!	!	!	!	!LO:SIC:v:s=4f#	!	!	!
.	.	.	.	.	.	.	.	4fn/	.	4a#X\	.
=4	=4	=4	=4	=4	=4	=4	=4	=4	=4	=4	=4
!	!	!	!	!	!	!	!LO:HP:b	!	!LO:HP:b	!	!LO:HP:b
1ryy	1ryy	1r	.	1r	.	1e	<[	1g	<[	1b	<[
=5	=5	=5	=5	=5	=5	=5	=5	=5	=5	=5	=5
!	!	!	!	!	!	!	!LO:HP:b	!	!LO:HP:b	!	!LO:HP:b
1ryy	1ryy	1r	.	1r	.	2e\	>	2g/	>	2b/	>
.	.	.	.	.	.	4B/	]	4e/	]	4g/	]
.	.	.	.	.	.	4r	.	4r	.	4r	.
=6	=6	=6	=6	=6	=6	=6	=6	=6	=6	=6	=6
*	*	*	*	*	*	*	*	*	*	*2\right	*
1ryy	1ryy	1r	.	1r	.	2b 2g^>\	.	2b 2g^</	.	2ee^>\	.
.	.	.	.	.	.	4e\	.	4g/	.	4cc\	.
.	.	.	.	.	.	4r	.	4r	.	4r	.
=7	=7	=7	=7	=7	=7	=7	=7	=7	=7	=7	=7
!	!	!	!	!	!	!	!	!	!	!	!LO:DY:a:rj:t=pp.
1ryy	1ryy	1r	.	4.B\	.	4.B/	.	4.e/	.	4.g/	pp
.	.	.	.	8c\	.	8c/	.	8e/	.	8g/	.
.	.	.	.	4B\	.	4B/	.	4e/	.	4g/	.
.	.	.	.	4A#X\	.	4A#X/	.	4e/	.	4g/	.
=8	=8	=8	=8	=8	=8	=8	=8	=8	=8	=8	=8
1ryy	1ryy	1r	.	[>4B\	.	[<4B/	.	2e/	.	2g/	.
.	.	.	.	8B\]	.	8B/]	.	.	.	.	.
.	.	.	.	8r	.	8r	.	.	.	.	.
.	.	.	.	2r	.	2r	.	8B/	.	8f#/	.
.	.	.	.	.	.	.	.	8r	.	8r	.
.	.	.	.	.	.	.	.	4r	.	8e'/L	.
.	.	.	.	.	.	.	.	.	.	8d#X'/J	.
!!LO:LB:g=original
=9	=9	=9	=9	=9	=9	=9	=9	=9	=9	=9	=9
1ryy	1ryy	1r	.	1r	.	2r	.	2r	.	4e/	.
.	.	.	.	.	.	.	.	.	.	8f#/L	.
.	.	.	.	.	.	.	.	.	.	8g/J	.
.	.	.	.	.	.	2c^>\	.	4r	.	2a^</	.
.	.	.	.	.	.	.	.	8e'/L	.	.	.
.	.	.	.	.	.	.	.	8d#X'/J	.	.	.
=10	=10	=10	=10	=10	=10	=10	=10	=10	=10	=10	=10
*	*	*	*	*2\right	*	*	*	*	*	*	*
1ryy	1ryy	2r	.	[>2E^\	.	4.B\	.	4e/	.	4g/	.
.	.	.	.	.	.	.	.	8f#/L	.	8a/L	.
.	.	.	.	.	.	8e\	.	8g/J	.	8b/J	.
.	.	4r	.	8E\]	.	4.e\	.	2a^</	.	2cc^>\	.
.	.	.	.	8r	.	.	.	.	.	.	.
!	!	!	!LO:DY:b:rj	!	!	!	!	!	!	!	!
.	.	8E'\L	f	8E'\L	f	.	.	.	.	.	.
!	!	!	!	!	!	!	!	!	!	!	!LO:HP:b
.	.	8D#X'\J	.	8D#X'\J	.	8f#\	.	.	.	.	<
=11	=11	=11	=11	=11	=11	=11	=11	=11	=11	=11	=11
!	!	!LO:TX:t=P:problem:t. 11-12: col vlc.	!	!	!	!	!	!	!LO:DY:b:rj	!	!
!	!	!LO:TX:a:i:t=col vlc.	!	!	!	!	!	!	!	!	!
!	!	!	!	!	!	!	!LO:HP:b	!	!	!	!
1ryy	1ryy	4.E\	.	4.E\	.	2.g\	<	4G/	f	4b\	.
!	!	!	!	!	!	!	!	!	!LO:HP:b	!	!
!	!	!	!LO:HP:b	!	!LO:HP:b	!	!	!	!	!	!
.	.	.	<	.	<	.	.	8A/L	<	8cc\L	.
.	.	8Dn\	.	8Dn\	.	.	.	8B/J	.	8dd\J	[
.	.	4C/	.	4C/	.	.	.	4c/	.	4.ee\	.
.	.	4BB/	[[	4BB/	[[	4G/	[	4d/	[[	.	.
.	.	.	.	.	.	.	.	.	.	8dd\	.
!	!	!	!	!	!	!	!	!	!	!	!LO:HP:b
.	.	.	.	.	.	.	.	.	.	.	>
=12	=12	=12	=12	=12	=12	=12	=12	=12	=12	=12	=12
!	!	!	!	!	!LO:HP:b	!	!LO:HP:b	!	!LO:HP:b	!	!
1ryy	1ryy	(<4AA/	>	(<4AA/	>	(<4G/	>	(<4e/	>	4.dd\	.
.	.	4D/	.	4D/	.	4A/	.	4f#/	.	.	.
.	.	.	.	.	.	.	.	.	.	8cc\	]
.	.	4GG/)	]	4GG/)	]	4B/)	.	4g/)	]	4b\	.
.	.	4r	.	4r	.	4r	]	4r	.	4r	.
=13	=13	=13	=13	=13	=13	=13	=13	=13	=13	=13	=13
!	!	!	!	!	!LO:DY:b:rj	!	!LO:DY:b:rj	!	!LO:DY:b:rj	!	!LO:DY:b:rj
1ryy	1ryy	4.D\	.	4.A 4.D\	f	4.a 4.d\	f	4.f# 4.A/	f	4.dd 4.f#/	f
.	.	8D\	.	8A 8D\	.	8a 8d\	.	8f# 8A/	.	8a 8f#/	.
.	.	4D\	.	4A 4D\	.	4a 4d\	.	4f# 4A/	.	4a 4f#/	.
.	.	4r	.	4r	.	4r	.	4r	.	4r	.
=14	=14	=14	=14	=14	=14	=14	=14	=14	=14	=14	=14
!	!	!	!	!	!LO:DY:b:rj	!	!LO:DY:b:rj	!	!LO:DY:b:rj	!	!LO:DY:b:rj
1ryy	1ryy	1r	.	4.D\	p	4.A/	p	4.fn/	p	(>4.dd\	p
.	.	.	.	8D\	.	8A/	.	8f/	.	8a\)	.
.	.	.	.	4D\	.	4A/	.	4f/	.	4a\	.
.	.	.	.	4r	.	4r	.	4r	.	4r	.
=15	=15	=15	=15	=15	=15	=15	=15	=15	=15	=15	=15
!	!	!	!	!	!LO:DY:b	!	!LO:DY:b:rj	!	!LO:DY:b:rj	!	!LO:DY:a:rj:t=pp.
1ryy	1ryy	1ryy	.	[>1A	pp	4.A/	pp	4.cc\	pp	4.e^</	pp
.	.	.	.	.	.	8A/	.	8cc\	.	8fn/	.
.	.	.	.	.	.	4A/	.	4cc\	.	4e/	.
!	!LO:TX:t=P:problem:w źródle ta adnotacja zapisana pionowo, za taktem 15	!	!	!	!	!	!	!	!	!	!
!	!LO:TX:b:i:t=Msza (E moll) na 3 żeńskie głosy \n M.	!	!	!	!	!	!	!	!	!	!
.	.	.	.	.	.	4A/	.	4cc\	.	4d#X/	.
!!LO:PB:g=original
=16	=16	=16	=16	=16	=16	=16	=16	=16	=16	=16	=16
!	!	!	!	!LO:TX:t=P:problem:łuk na początku pięciolini, bez rozpoczęcia w poprzednim takcie	!	!LO:TX:t=P:problem:łuk na początku pięciolini	!	!	!	!	!
1ryy	1ryy	1r	.	4A\]	.	4A/	.	4cc\	.	2e/	.
.	.	.	.	4r	.	4r	.	4r	.	.	.
.	.	.	.	2r	.	2a^>\	.	2a^</	.	2r	.
=17	=17	=17	=17	=17	=17	=17	=17	=17	=17	=17	=17
!	!	!	!	!	!	!	!	!	!	!LO:TX:t=P:problem:po kresce taktowej wykreślony znak g#	!
!	!	!	!LO:DY:b:rj	!	!LO:DY:b:rj	!	!LO:DY:b:rj	!	!LO:DY:b:rj	!	!LO:DY:b
1ryy	1ryy	4.E^>\	f	4.E^>\	f	4.e^>\	f	4.g#X 4.B^</	f	4.ee^>\	f
.	.	8E\	.	8E\	.	8e\	.	8g# 8B/	.	8b\	.
.	.	4E\	.	4E\	.	4e\	.	4g# 4B/	.	4b\	.
!	!	!	!	!	!	!	!	!LO:TX:a:t=V. 1.	!	!LO:TX:a:t=V. 2.do	!
.	.	4r	.	4r	.	4r	.	4r	.	4r	.
=18	=18	=18	=18	=18	=18	=18	=18	=18	=18	=18	=18
!	!	!	!	!	!	!	!	!	!	!	!LO:DY:a
!	!	!	!	!	!LO:DY:b:rj	!	!LO:DY:b:rj	!	!LO:DY:b:rj	!	!
1ryy	1ryy	1r	.	4.E\	p	4.B/	p	(>4.ee\	p	4.gn/	p
.	.	.	.	8E\	.	8B/	.	8b\)	.	8g/	.
.	.	.	.	4E\	.	4B/	.	4b\	.	4g/	.
!	!	!	!	!	!	!	!	!LO:TX:b:t=V. 2.	!	!LO:TX:a:t=V. 1mo	!
.	.	.	.	4r	.	4r	.	4r	.	4r	.
=19	=19	=19	=19	=19	=19	=19	=19	=19	=19	=19	=19
*	*	*	*	*	*	*	*	*2\right	*	*	*
1ryy	1ryy	1ryy	.	2B\	.	2B/	.	2dd\	.	4.f#/	.
.	.	.	.	.	.	.	.	.	.	8g/	.
.	.	.	.	4B\	.	4B/	.	4dd\	.	4f#/	.
.	.	.	.	4B\	.	4B/	.	4dd\	.	4e#X/	.
=20	=20	=20	=20	=20	=20	=20	=20	=20	=20	=20	=20
!	!	!	!	!	!	!	!	!LO:TX:t=P:problem:4a poprawione na 2a	!	!LO:TX:t=P:problem:4f# poprawione na 2f# przez głównego skryptora	!
1ryy	1ryy	1ryy	.	2.d\	.	2.d\	.	2a/	.	2f#/	.
.	.	.	.	.	.	.	.	4e/	.	4g/	.
.	.	.	.	4r	.	4r	.	4f#/	.	4a/	.
=21!|:	=21!|:	=21!|:	=21!|:	=21!|:	=21!|:	=21!|:	=21!|:	=21!|:	=21!|:	=21!|:	=21!|:
*>B	*>B	*>B	*	*>B	*	*>B	*	*>B	*	*>B	*
1ryy	1ryy	1ryy	.	1r	.	2r	.	4g/	.	4b\	.
.	.	.	.	.	.	.	.	(<8a/L	.	(>8cc\L	.
.	.	.	.	.	.	.	.	8b/J)	.	8dd\J)	.
.	.	.	.	.	.	4r	.	4cc/	.	4ee\	.
.	.	.	.	.	.	[>4g^>\	.	4b/	.	4dd\	.
=22	=22	=22	=22	=22	=22	=22	=22	=22	=22	=22	=22
1ryy	1ryy	1ryy	.	1r	.	4g\]	.	2a/	.	4.dd\	.
.	.	.	.	.	.	4f#\	.	.	.	.	.
.	.	.	.	.	.	.	.	.	.	8cc\	.
.	.	.	.	.	.	(>8g\L	.	4g/	.	4b\	.
.	.	.	.	.	.	8f#\	.	.	.	.	.
.	.	.	.	.	.	8e\	.	[<4g/	.	(>4b\	.
.	.	.	.	.	.	8d\J)	.	.	.	.	.
!!LO:LB:g=original
=23	=23	=23	=23	=23	=23	=23	=23	=23	=23	=23	=23
1ryy	1ryy	1r	.	1r	.	4c\	.	2.g/]	.	4a/)	.
.	.	.	.	.	.	(>8d\L	.	.	.	(<8b/L	.
.	.	.	.	.	.	8e\J)	.	.	.	8cc/J)	.
.	.	.	.	.	.	4.d\	.	.	.	4b/	.
.	.	.	.	.	.	.	.	(<[<4f#/	.	4a/	.
.	.	.	.	.	.	8d\	.	.	.	.	.
=24	=24	=24	=24	=24	=24	=24	=24	=24	=24	=24	=24
1ryy	1ryy	1r	.	1r	.	(>4c/	.	4f#/]	.	(>4ee\	.
.	.	.	.	.	.	4B/	.	4g/	.	4dd\	.
.	.	.	.	.	.	4A/	.	4e/	.	4cc\	.
.	.	.	.	.	.	4d\)	.	4f#/)	.	4a\)	.
=25	=25	=25	=25	=25	=25	=25	=25	=25	=25	=25	=25
1ryy	1ryy	1r	.	4G\	.	4G/	.	2.g/	.	4b\	.
.	.	.	.	(>8A\L	.	(<8A/L	.	.	.	(>8cc\L	.
.	.	.	.	8B\J)	.	8B/J)	.	.	.	8dd\J)	.
.	.	.	.	4c\	.	4c\	.	.	.	4ee\	.
.	.	.	.	4d\	.	4d\	.	4f#/	.	4dd\	.
=26	=26	=26	=26	=26	=26	=26	=26	=26	=26	=26	=26
1ryy	1ryy	1r	.	4e\	.	4e\	.	4g/	.	4.dd^>\	.
.	.	.	.	4f#\	.	4f#\	.	4a/	.	.	.
.	.	.	.	.	.	.	.	.	.	8cc\	.
.	.	.	.	8g\	.	8g\	.	4.g/	.	4.b/	.
.	.	.	.	8r	.	8r	.	.	.	.	.
.	.	.	.	4B\	.	4B/	.	.	.	.	.
.	.	.	.	.	.	.	.	8f#/	.	8a/	.
=27	=27	=27	=27	=27	=27	=27	=27	=27	=27	=27	=27
*	*	*	*	*^	*	*^	*	*	*	*	*
!	!	!	!	!	!	!LO:HP:b	!	!	!LO:HP:b	!	!LO:HP:b	!	!LO:HP:b
1ryy	1ryy	1r	.	1e	2e\yy	<	1e	2e\yy	<	4e/	<	4g/	<
.	.	.	.	.	.	.	.	.	.	8f#/L	.	8a/L	.
.	.	.	.	.	.	.	.	.	.	8g/J	.	8b/J	.
!	!	!	!	!	!	!LO:HP:b	!	!	!LO:HP:b	!	!LO:HP:b	!	!LO:HP:b
.	.	.	.	.	2e\yy	[ >	.	2e\yy	[ >	4b/	[ >	4dd\	[ >
.	.	.	.	.	.	.	.	.	.	8a/L	.	8cc\L	.
.	.	.	.	.	.	.	.	.	.	8g/J	]	8b\J	]
*	*	*	*	*v	*v	*	*	*	*	*	*	*	*
*	*	*	*	*	*	*v	*v	*	*	*	*	*
=28	=28	=28	=28	=28	=28	=28	=28	=28	=28	=28	=28
1ryy	1ryy	1r	.	(>4e\	]	(>4e\	]	2f#/	.	4.b/	.
.	.	.	.	4d#X\	.	4d#X\	.	.	.	.	.
.	.	.	.	.	.	.	.	.	.	8a/	.
.	.	.	.	4e\	.	4e\	.	4e/	.	4g/	.
.	.	.	.	4dn\)	.	4dn\)	.	4r	.	4r	.
=29	=29	=29	=29	=29	=29	=29	=29	=29	=29	=29	=29
!	!	!	!	!	!LO:DY:b	!	!LO:DY:b	!	!LO:DY:b	!	!LO:DY:b
1ryy	1ryy	1r	.	4.c^>\	mf	4.e^>\	mf	4.g^</	mf	4.ee^>\	mf
.	.	.	.	8B\	.	8B/	.	8e/	.	8g/	.
.	.	.	.	4A#X\	.	4A#X/	.	2e/	.	2g/	.
!	!	!	!	!	!LO:DY:b	!	!LO:DY:b	!	!	!	!
.	.	.	.	4B\	p	4B/	p	.	.	.	.
=30	=30	=30	=30	=30	=30	=30	=30	=30	=30	=30	=30
1ryy	1ryy	1r	.	(>4c\	.	(<4c/	.	4.e/	.	4.g/	.
.	.	.	.	4B\	.	4B/	.	.	.	.	.
.	.	.	.	.	.	.	.	8e/	.	8g/	.
.	.	.	.	4d\	.	4d/	.	4e/	.	(4g/	.
.	.	.	.	4c\)	.	4c/)	.	(<4e/	.	4a/)	.
!!LO:PB:g=original
=31	=31	=31	=31	=31	=31	=31	=31	=31	=31	=31	=31
1ryy	1ryy	1r	.	1B	.	1B	.	4B/	.	4b/	.
.	.	.	.	.	.	.	.	4g/	.	4g/	.
.	.	.	.	.	.	.	.	2f#/)	.	4f#/	.
.	.	.	.	.	.	.	.	.	.	4b/	.
=32	=32	=32	=32	=32	=32	=32	=32	=32	=32	=32	=32
*>B1	*>B1	*>B1	*	*>B1	*	*>B1	*	*>B1	*	*>B1	*
!	!	!	!	!	!	!	!	!	!	!LO:TX:a:t=1ma	!
1ryy	1ryy	1r	.	4e\	.	4e\	.	4e/	.	4.e^/	.
.	.	.	.	4r	.	4r	.	4r	.	.	.
.	.	.	.	.	.	.	.	.	.	8f#/	.
.	.	.	.	2r	.	4e^>\	.	4e^</	.	4g/	.
.	.	.	.	.	.	4f#\	.	4f#/	.	4a/	.
=33:|!	=33:|!	=33:|!	=33:|!	=33:|!	=33:|!	=33:|!	=33:|!	=33:|!	=33:|!	=33:|!	=33:|!
*>B2	*>B2	*>B2	*	*>B2	*	*>B2	*	*>B2	*	*>B2	*
!	!	!	!LO:DY:b	!	!	!	!	!	!	!LO:TX:a:t=2da	!
1ryy	1ryy	[>1E	pp	4.E\	.	4E/	.	4e/	.	4e/	.
.	.	.	.	.	.	4r	.	4r	.	4r	.
!	!	!	!	!	!LO:DY:b:t=pp.	!	!	!	!	!	!
.	.	.	.	8BB/	pp	.	.	.	.	.	.
!	!	!	!	!	!	!	!LO:DY:a:t=pp.	!	!	!	!
!	!	!	!	!	!	!	!	!LO:N:vis=1	!	!LO:N:vis=1	!
.	.	.	.	(>8E\L	.	(<8E/L	pp	2rb	.	2rb	.
.	.	.	.	8G#X\	.	8G#X/	.	.	.	.	.
.	.	.	.	8B\	.	8B/	.	.	.	.	.
.	.	.	.	8e\J)	.	8e/J)	.	.	.	.	.
=34	=34	=34	=34	=34	=34	=34	=34	=34	=34	=34	=34
*>C	*>C	*>C	*	*>C	*	*>C	*	*>C	*	*>C	*
!	!	!	!	!	!	!	!	!	!LO:DY:a:t=pp.	!	!LO:DY:a:t=pp.
1ryy	1ryy	1E^>_>	.	[>1E	.	4.B/	.	4.e/	pp	4.b 4.g#X/	pp
.	.	.	.	.	.	8G#X/	.	8G#X/	.	8G#X/	.
.	.	.	.	.	.	(<8B/L	.	(<8B/L	.	(<8B/L	.
.	.	.	.	.	.	8e/	.	8e/	.	8e/	.
.	.	.	.	.	.	8g#X/	.	8g#X/	.	8g#X/	.
.	.	.	.	.	.	8b/J)	.	8b/J)	.	8b/J)	.
=35	=35	=35	=35	=35	=35	=35	=35	=35	=35	=35	=35
1ryy	1ryy	1E^>_>	.	2E^<\]	.	4.B^</	.	4.g#X^</	.	4.ee^>\	.
.	.	.	.	.	.	8g#X\	.	8g#/	.	8b\	.
.	.	.	.	(>8e\L	.	(<8e/L	.	8e/	.	8g#X/	.
.	.	.	.	8B\	.	8B/	.	8r	.	8r	.
.	.	.	.	8G#X\	.	8G#X/	.	4e/	.	4e/	.
.	.	.	.	8E\J)	.	8E/J)	.	.	.	.	.
=36	=36	=36	=36	=36	=36	=36	=36	=36	=36	=36	=36
1ryy	1ryy	1E^>_>	.	2D^</	.	2D^</	.	4.B^</	.	4.G#X/	.
!	!	!	!	!	!	!	!	!LO:SIC:v:s=8c#	!	!	!
.	.	.	.	.	.	.	.	8c/	.	8A/	.
.	.	.	.	4.C#X/	.	4.C#X/	.	4B/	.	4G#/	.
.	.	.	.	.	.	.	.	4A#X/	.	4Gn/	.
.	.	.	.	8Cn/	.	8Cn/	.	.	.	.	.
=37	=37	=37	=37	=37	=37	=37	=37	=37	=37	=37	=37
1ryy	1ryy	1E^>;]	.	1BB;>	.	1E;>	.	1B;>	.	1e 1G#X;>	.
=||	=||	=||	=||	=||	=||	=||	=||	=||	=||	=||	=||
*-	*-	*-	*-	*-	*-	*-	*-	*-	*-	*-	*-
!!!system-decoration: [(g1){(s6,s7)}]
!!!RDF**kern: > = above
!!!RDF**kern: < = below
!!!ENC: Katarzyna Serwa
!!!END: 2021-04-02
!!!EED: Antoni Szymański
!!!EST: 2021-04-17
